svg/domestic_worker_negative.svg

<?xml version="1.0" encoding="UTF-8" standalone="no"?>
<!-- Created with Inkscape (http://www.inkscape.org/) -->
<svg id="svg8" xmlns:rdf="http://www.w3.org/1999/02/22-rdf-syntax-ns#" xmlns="http://www.w3.org/2000/svg" xmlns:osb="http://www.openswatchbook.org/uri/2009/osb" height="48" width="48" version="1.1" xmlns:cc="http://creativecommons.org/ns#" viewBox="0 0 12.7 12.7" xmlns:dc="http://purl.org/dc/elements/1.1/">
 <title id="title4753">UIO-icon</title>
 <metadata id="metadata5">
  <rdf:RDF>
   <cc:Work rdf:about="">
    <dc:format>image/svg+xml</dc:format>
    <dc:type rdf:resource="http://purl.org/dc/dcmitype/StillImage"/>
    <dc:title>UIO-icon</dc:title>
    <dc:creator>
     <cc:Agent>
      <dc:title>Joaquín Urbano</dc:title>
     </cc:Agent>
    </dc:creator>
    <dc:rights>
     <cc:Agent>
      <dc:title>GPL</dc:title>
     </cc:Agent>
    </dc:rights>
   </cc:Work>
  </rdf:RDF>
 </metadata>
 <g id="layer1" transform="translate(0,-284.3)">
  <path id="rect11002" d="m0 0v48h48v-48zm23.654 6.6426c0.011264-0.000080126 0.02079 0 0.03125 0 9.8414 0.020115 10.889 9.2274 9.4238 18.816-0.54224 3.0889-3.4892 1.2065-5.5195 1.3887l0.74219-0.50586c0.40568-0.27391 0.91232-0.55037 1.0645-0.87695 0.91881-1.9826 1.1173-3.2076 1.3027-4.416 0.073513-1.0386 0.043893-2.0813-0.25586-3.1406-0.436-1.482-1.241-2.717-1.923-3.541-0.977-1.163-2.096-2.173-3.301-3.086-0.10318-0.068194-0.20151-0.16165-0.31055-0.18555-0.10903-0.023894-0.22876 0.021779-0.37109 0.23242-1.3392 1.3635-2.4835 2.4884-3.7832 3.4629-1.176 0.83742-2.3142 1.2184-3.4277 1.3066-0.44642 0.12983-0.50045 0.26948-0.47852 0.51367-0.016879 1.296 0.10744 3.9925 0.125 4.2188 0.018648 1.1779 0.18519 2.2309 0.47461 3.1797 0.352 0.98079 0.8193 1.8027 1.5039 2.3262l1.0117 0.53711c-2.032-0.35-5.172 1.784-5.734-1.414-1.105-9.244-0.38-18.809 9.424-18.816zm1.25 5.0449c5.2217 4.0188 6.6866 7.7562 4.0234 13.564-0.17086 0.16658-0.35239 0.32145-0.55664 0.44922-1.528 1.028-3.294 2.248-4.433 2.244-1.664-0.047-2.642-0.745-4.532-1.935-1.335-0.841-1.912-3.164-1.916-5.049-0.056-1.432-0.158-2.864-0.131-4.295l0.001953-0.054688c2.913-0.105 5.211-2.581 7.543-4.923zm-3.982 5.527c-0.43898 0.00011339-0.79483 0.35604-0.79492 0.79492 0.0000911 0.43895 0.35596 0.79481 0.79492 0.79492 0.43898-0.00011339 0.79482-0.356 0.79492-0.79492-0.00009904-0.43899-0.35596-0.79481-0.79492-0.79492zm5.9688 0c-0.43898 0.00011339-0.79483 0.35604-0.79492 0.79492 0.0000911 0.43895 0.35592 0.79481 0.79492 0.79492 0.43899-0.00011339 0.79482-0.356 0.79492-0.79492-0.00009864-0.43899-0.35592-0.79481-0.79492-0.79492zm-3.0352 3.6699c-0.37814 0.00378-0.67004 0.070579-0.66602 0.14844 0.002 0.080882 0.3224 0.14686 0.7168 0.14648 0.39441 0.0000378 0.71477-0.065602 0.7168-0.14648 0.003-0.082016-0.31865-0.14844-0.7168-0.14844-0.017008-0.00011299-0.033996-0.00011299-0.050781 0zm0.035156 2.5488c-1.4518 0.003704-2.5734 0.048271-2.5605 0.10156 0.01852 0.055181 1.2473 0.099609 2.7559 0.099609 1.5078 0 2.7352-0.044806 2.7539-0.099609 0.009789-0.055937-1.226-0.10156-2.7539-0.10156-0.06508-0.00007559-0.13027-0.00007559-0.19531 0zm6.8516 5.2754c0.81693 0.28997 1.6098 0.61807 2.4043 0.95898v5.9824h-18.737v-5.8496c0.85479-0.37062 1.7067-0.72933 2.582-1.0449l0.10938-0.029297c1.8171 1.8074 4.275 2.8233 6.8379 2.8262 2.085-0.032267 5.2375-1.3736 6.8027-2.8437zm5.0566 2.1094c1.0649 0.46137 2.1621 0.92102 3.373 1.3418 2.5451 0.75129 2.5449 2.867 2.5449 4.0195v6.6621h-5.919zm-24.042 0.131v11.893h-5.6135v-6.662c0-1.1525-0.00017116-3.27 2.5449-4.0195 1.0957-0.38071 2.0962-0.79443 3.0684-1.2109z" fill-rule="evenodd" transform="matrix(.26458 0 0 .26458 0 284.3)" fill="#333"/>
 </g>
</svg>

<svg width="48" height="48" viewBox="0 0 48 48" fill="none" xmlns="http://www.w3.org/2000/svg">
<path fill-rule="evenodd" clip-rule="evenodd" d="M0 0V47.9994H47.9994V0H0ZM23.6537 6.64252C23.665 6.64244 23.6745 6.64252 23.685 6.64252C33.5262 6.66263 34.5738 15.8698 33.1086 25.4583C32.5664 28.5471 29.6195 26.6648 27.5892 26.847L28.3314 26.3411C28.7371 26.0672 29.2437 25.7907 29.3959 25.4642C30.3147 23.4816 30.5132 22.2566 30.6986 21.0482C30.7721 20.0096 30.7424 18.967 30.4427 17.9077C30.0067 16.4257 29.2017 15.1907 28.5197 14.3667C27.5427 13.2037 26.4237 12.1937 25.2188 11.2807C25.1156 11.2126 25.0173 11.1191 24.9082 11.0952C24.7992 11.0713 24.6795 11.117 24.5371 11.3276C23.1979 12.6911 22.0537 13.816 20.754 14.7905C19.578 15.6279 18.4398 16.0089 17.3263 16.0971C16.8799 16.2269 16.8259 16.3665 16.8478 16.6107C16.8309 17.9067 16.9552 20.6032 16.9728 20.8295C16.9915 22.0074 17.158 23.0603 17.4474 24.0091C17.7994 24.9899 18.2667 25.8118 18.9513 26.3353L19.963 26.8724C17.931 26.5224 14.791 28.6564 14.2291 25.4584C13.1241 16.2145 13.8491 6.64966 23.6529 6.64266L23.6537 6.64252ZM24.9037 11.6874C30.1253 15.7061 31.5902 19.4435 28.927 25.2512C28.7562 25.4178 28.5747 25.5726 28.3704 25.7004C26.8424 26.7284 25.0764 27.9484 23.9375 27.9444C22.2735 27.8974 21.2955 27.1994 19.4055 26.0094C18.0705 25.1684 17.4935 22.8454 17.4895 20.9605C17.4335 19.5285 17.3315 18.0965 17.3585 16.6655L17.3605 16.6108C20.2735 16.5058 22.5714 14.0299 24.9034 11.6879L24.9037 11.6874ZM20.9217 17.2143C20.4828 17.2144 20.1269 17.5703 20.1268 18.0092C20.1269 18.4481 20.4828 18.804 20.9217 18.8041C21.3607 18.804 21.7165 18.4481 21.7166 18.0092C21.7166 17.5702 21.3607 17.2144 20.9217 17.2143ZM26.8905 17.2143C26.4515 17.2144 26.0956 17.5703 26.0956 18.0092C26.0956 18.4481 26.4515 18.804 26.8905 18.8041C27.3294 18.804 27.6853 18.4481 27.6854 18.0092C27.6853 17.5702 27.3295 17.2144 26.8905 17.2143ZM23.8553 20.8841C23.4772 20.8879 23.1853 20.9547 23.1893 21.0326C23.1913 21.1135 23.5117 21.1794 23.9061 21.1791C24.3005 21.1791 24.6208 21.1135 24.6229 21.0326C24.6259 20.9506 24.3042 20.8841 23.9061 20.8841C23.8891 20.884 23.8721 20.884 23.8553 20.8841ZM23.8905 23.4329C22.4387 23.4366 21.3171 23.4812 21.33 23.5345C21.3485 23.5896 22.5773 23.6341 24.0859 23.6341C25.5936 23.6341 26.821 23.5893 26.8397 23.5345C26.8495 23.4785 25.6137 23.4329 24.0859 23.4329C24.0208 23.4328 23.9556 23.4328 23.8905 23.4329ZM30.742 28.7082C31.5589 28.9982 32.3518 29.3263 33.1462 29.6672V35.6495H14.4095V29.8C15.2643 29.4294 16.1162 29.0707 16.9914 28.7551L17.1008 28.7258C18.9179 30.5332 21.3758 31.5491 23.9386 31.552C26.0236 31.5197 29.1761 30.1784 30.7413 28.7083L30.742 28.7082ZM35.7985 30.8176C36.8634 31.279 37.9606 31.7386 39.1715 32.1594C41.7165 32.9107 41.7163 35.0264 41.7163 36.1788V42.8409H35.7974L35.7985 30.8176ZM11.7568 30.9486V42.8415H6.14338V36.1795C6.14338 35.0271 6.14321 32.9096 8.68825 32.1601C9.78393 31.7794 10.7844 31.3657 11.7566 30.9492L11.7568 30.9486Z" fill="#333333"/>
</svg>
